src/assets/icons/invoice.svg

<svg width="24" height="24" viewBox="0 0 24 24" fill="none" xmlns="http://www.w3.org/2000/svg">
<!-- Document body -->
<path d="M6.75 4.5H6V6H6.75V5.25V4.5ZM19.75 8.25H19V18.25H19.75H20.5V8.25H19.75ZM17.75 20.25V19.5H9.75V20.25V21H17.75V20.25ZM6.75 5.25V6H13.25V5.25V4.5H6.75V5.25ZM13.25 5.25V6H16.75V5.25V4.5H13.25V5.25ZM7.75 18.25H8.5V9.75H7.75H7V18.25H7.75ZM9.75 20.25V19.5C9.05964 19.5 8.5 18.9404 8.5 18.25H7.75H7C7 19.7688 8.23122 21 9.75 21V20.25ZM19.75 18.25H19C19 18.9404 18.4404 19.5 17.75 19.5V20.25V21C19.2688 21 20.5 19.7688 20.5 18.25H19.75ZM19.75 8.25H20.5C20.5 6.17893 18.8211 4.5 16.75 4.5V5.25V6C17.9926 6 19 7.00736 19 8.25H19.75Z" fill="#314158"/>
<!-- Tab -->
<path d="M4.75 7.75C4.75 6.92157 5.42157 6.25 6.25 6.25C7.07843 6.25 7.75 6.92157 7.75 7.75V11.25H5.75C5.19772 11.25 4.75 10.8023 4.75 10.25V7.75Z" stroke="#314158" stroke-width="1.5"/>
<!-- Lines -->
<path d="M10.75 17.25H16.75" stroke="#314158" stroke-width="1.5" stroke-linecap="round" stroke-linejoin="round"/>
<path d="M10.75 14.25H16.75" stroke="#314158" stroke-width="1.5" stroke-linecap="round" stroke-linejoin="round"/>
<path d="M10.75 11.25H16.75" stroke="#314158" stroke-width="1.5" stroke-linecap="round" stroke-linejoin="round"/>
<path d="M10.75 8.25H13.75" stroke="#314158" stroke-width="1.5" stroke-linecap="round" stroke-linejoin="round"/>
<!-- Dot -->
<circle cx="8" cy="7" r="0.75" fill="#314158" stroke="#314158" stroke-width="0.5"/>
</svg>

<svg fill="none" viewBox="0 0 24 24"><path fill="currentColor" d="M6.75 4.5H6V6h.75V4.5m13 3.75H19v10h1.5v-10zm-2 12v-.75h-8V21h8zm-11-15V6h6.5V4.5h-6.5zm6.5 0V6h3.5V4.5h-3.5zm-5.5 13h.75v-8.5H7v8.5zm2 2v-.75c-.69 0-1.25-.56-1.25-1.25H7A2.75 2.75 0 0 0 9.75 21zm10-2H19c0 .69-.56 1.25-1.25 1.25V21a2.75 2.75 0 0 0 2.75-2.75zm0-10h.75a3.75 3.75 0 0 0-3.75-3.75V6A2.25 2.25 0 0 1 19 8.25z"/><path stroke="currentColor" stroke-width="1.5" d="M4.75 7.75a1.5 1.5 0 1 1 3 0v3.5h-2a1 1 0 0 1-1-1z"/><path stroke="currentColor" stroke-linecap="round" stroke-linejoin="round" stroke-width="1.5" d="M10.75 17.25h6M10.75 14.25h6M10.75 11.25h6M10.75 8.25h3"/><circle cx="8" cy="7" r=".75" fill="currentColor" stroke="currentColor" stroke-width=".5"/></svg>
